X: 32280
T: Pig Aitin' Nuts In The Woods, The
R: polka
M: 2/4
K: Amixolydian
e>d|:cA A/B/A/G/|EA A>B|ce dB|G2 e>d|
cA A/B/A/G/|EA A>B|ce dB|1 A2 A>B:|2 A2 A2||
|:ea a/b/a/g/|ef g>e|dB gB|G2 e>d|
cA A/B/A/G/|EA A>B|ce dB|1 A2 A>c:|2 A2 A2||

